devices/22/media-optical-data.svg

<svg xmlns="http://www.w3.org/2000/svg" viewBox="0 0 22 22">
  <defs id="defs3051">
    <style type="text/css" id="current-color-scheme">.ColorScheme-Text {color:#eff0f1;}</style>
  </defs>
    <path
       style="fill:currentColor;fill-opacity:1;stroke:none" 
       d="m 11,3 c -4.418278,0 -8,3.581722 -8,8 0,4.418278 3.581722,8 8,8 0.334475,-0.0025 0.668464,-0.02599 1,-0.07031 V 17.921875 C 11.668964,17.971796 11.334773,17.997905 11,18 7.1340068,18 4,14.865993 4,11 4,7.1340068 7.1340068,4 11,4 c 3.865993,0 7,3.1340068 7,7 h 1 C 19,6.581722 15.418278,3 11,3 Z m 0,2 C 7.676,5 5,7.676 5,11 H 8 C 8,9.338 9.338,8 11,8 Z m 0,4 c -1.1045695,0 -2,0.8954305 -2,2 0,1.104569 0.8954305,2 2,2 v -1 c -0.552285,0 -1,-0.447715 -1,-1 0,-0.552285 0.447715,-1 1,-1 0.552285,0 1,0.447715 1,1 h 1 C 13,9.8954305 12.104569,9 11,9 Z m 2,4 c 0,0 0,4 0,5 0,1 1,1 1,1 h 2 l 2,-2 v -4 c 0,0 0,-1 -1,-1 -1,0 -2,0 -3,0 -1,0 -1,1 -1,1 z m 1,0 h 3 v 4 h -1 v 1 h -2 z"
       id="rect4119" 
       class="ColorScheme-Text"/>
</svg>

<svg xmlns="http://www.w3.org/2000/svg" viewBox="0 0 22 22">
  <defs id="defs3051">
    <style type="text/css" id="current-color-scheme">
      .ColorScheme-Text {
        color:#eff0f1;
      }
      </style>
  </defs>
    <path
       style="fill:currentColor;fill-opacity:1;stroke:none" 
       d="M 11 3 A 8 8 0 0 0 3 11 A 8 8 0 0 0 11 19 A 8 8 0 0 0 12 18.929688 L 12 17.921875 A 7 7 0 0 1 11 18 A 7 7 0 0 1 4 11 A 7 7 0 0 1 11 4 A 7 7 0 0 1 18 11 L 19 11 A 8 8 0 0 0 11 3 z M 11 5 C 7.676 5 5 7.676 5 11 L 8 11 C 8 9.338 9.338 8 11 8 L 11 5 z M 11 9 A 2 2 0 0 0 9 11 A 2 2 0 0 0 11 13 L 11 12 A 1 1 0 0 1 10 11 A 1 1 0 0 1 11 10 A 1 1 0 0 1 12 11 L 13 11 A 2 2 0 0 0 11 9 z M 13 12 L 13 19 L 16 19 L 18 17 L 18 12 L 13 12 z M 14 13 L 17 13 L 17 17 L 16 17 L 16 18 L 14 18 L 14 13 z "
       id="rect4119" 
       class="ColorScheme-Text"/>
</svg>
